packages/admin/admin-icons/icons/preview.svg

<svg xmlns="http://www.w3.org/2000/svg" width="16" height="16" viewBox="0 0 16 16"><path fill="#242424" fill-rule="evenodd" d="M5,14.5 C4.72385763,14.5 4.5,14.2761424 4.5,14 C4.5,13.7545401 4.67687516,13.5503916 4.91012437,13.5080557 L5,13.5 L7.5,13.5 L7.5,12 L0.5,12 C0.254540111,12 0.0503916296,11.8231248 0.00805566941,11.5898756 L0,11.5 L0,2.5 C0,2.25454011 0.176875161,2.05039163 0.410124368,2.00805567 L0.5,2 L1.5,2 C1.77614237,2 2,2.22385763 2,2.5 C2,2.77614237 1.77614237,3 1.5,3 L1,3 L1,11 L8,11 C8.24545989,11 8.44960837,11.1768752 8.49194433,11.4101244 L8.5,11.5 L8.5,13.5 L11,13.5 C11.2761424,13.5 11.5,13.7238576 11.5,14 C11.5,14.2454599 11.3231248,14.4496084 11.0898756,14.4919443 L11,14.5 L5,14.5 Z M15.5,2 C15.7454599,2 15.9496084,2.17687516 15.9919443,2.41012437 L16,2.5 L16,11.5 C16,11.7454599 15.8231248,11.9496084 15.5898756,11.9919443 L15.5,12 L11,12 C10.7238576,12 10.5,11.7761424 10.5,11.5 C10.5,11.2545401 10.6768752,11.0503916 10.9101244,11.0080557 L11,11 L15,11 L15,3 L14.5,3 C14.2238576,3 14,2.77614237 14,2.5 C14,2.22385763 14.2238576,2 14.5,2 L15.5,2 Z M8,1.5 C10.0949705,1.5 12.0949705,2.8331701 14,5.49951031 C12.095219,8.16650344 10.095219,9.5 8,9.5 C5.90502949,9.5 3.90502949,8.1668299 2,5.50048969 C3.90478103,2.83349656 5.90478103,1.5 8,1.5 Z M7.99985307,2.5 C6.45797283,2.5 4.93820192,3.41034444 3.43638371,5.29090985 L3.27230661,5.5 L3.43636905,5.70974282 C4.88272761,7.5202283 6.34558375,8.43125183 7.82864119,8.49625154 L7.99985307,8.5 C9.5417333,8.5 11.0615042,7.58965556 12.5633224,5.70909015 L12.7266934,5.49925 L12.5633371,5.29025718 C11.1169785,3.4797717 9.65412238,2.56874817 8.17106494,2.50374846 L7.99985307,2.5 Z M8,3.5 C9.1045695,3.5 10,4.3954305 10,5.5 C10,6.6045695 9.1045695,7.5 8,7.5 C6.8954305,7.5 6,6.6045695 6,5.5 C6,4.3954305 6.8954305,3.5 8,3.5 Z M8,4.5 C7.44771525,4.5 7,4.94771525 7,5.5 C7,6.05228475 7.44771525,6.5 8,6.5 C8.55228475,6.5 9,6.05228475 9,5.5 C9,4.94771525 8.55228475,4.5 8,4.5 Z"/></svg>

<svg width="16" height="16" fill="none" viewBox="0 0 16 16">
  <path fill="#242424" fill-rule="evenodd" d="M8 3.501a2 2 0 1 1 0 4 2 2 0 0 1 0-4Zm0 1a1 1 0 1 0 0 2 1 1 0 0 0 0-2Z M8 1.501c2.095 0 4.095 1.333 6 4-1.905 2.666-3.905 4-6 4s-4.095-1.333-6-4c1.905-2.667 3.905-4 6-4Zm0 1c-1.542 0-3.062.91-4.564 2.79l-.164.21.164.21c1.447 1.81 2.91 2.721 4.393 2.786l.17.004c1.543 0 3.063-.91 4.564-2.79l.164-.21-.164-.21c-1.446-1.81-2.909-2.721-4.392-2.786L8 2.5Z M1 11.001h7a.5.5 0 0 1 .492.41l.008.09v2H11a.5.5 0 0 1 .09.992L11 14.5H5a.5.5 0 0 1-.09-.992L5 13.5h2.5V12h-7a.5.5 0 0 1-.492-.41L0 11.5v-9A.5.5 0 0 1 .5 2h1a.5.5 0 1 1 0 1H1v8Zm14.992-8.59a.5.5 0 0 0-.492-.41h-1a.5.5 0 0 0 0 1h.5v8h-4l-.09.008a.5.5 0 0 0 .09.992h4.5l.09-.008A.5.5 0 0 0 16 11.5v-9c0-.03-.003-.06-.008-.09Z" clip-rule="evenodd"/>
</svg>
